src/Icon/svgs/CheckboxOn.svg

<svg width="24" height="24" viewBox="0 0 24 24" fill="none" xmlns="http://www.w3.org/2000/svg">
<path fill-rule="evenodd" clip-rule="evenodd" d="M20 2C21.11 2 22 2.9 22 4V20C22 21.1 21.11 22 20 22H4C2.89 22 2 21.1 2 20V4C2 2.9 2.89 2 4 2H20ZM10.3335 16.684L17.8335 9.184L16.6585 8L10.3335 14.326L7.3415 11.342L6.1665 12.517L10.3335 16.684Z" fill="#1B1C1D"/>
</svg>

<svg xmlns="http://www.w3.org/2000/svg" width="24" height="24" fill="none"  xmlns:v="https://vecta.io/nano"><path fill-rule="evenodd" d="M20 2a2 2 0 0 1 2 2v16a2 2 0 0 1-2 2H4a2 2 0 0 1-2-2V4a2 2 0 0 1 2-2h16zm-9.666 14.684l7.5-7.5L16.659 8l-6.325 6.326-2.992-2.984-1.175 1.175 4.167 4.167z" fill="#1b1c1d"/></svg>
